src/svg/bottom/bottom_21.svg

<?xml version="1.0" encoding="UTF-8" standalone="no"?>
<svg
   xmlns:dc="http://purl.org/dc/elements/1.1/"
   xmlns:cc="http://creativecommons.org/ns#"
   xmlns:rdf="http://www.w3.org/1999/02/22-rdf-syntax-ns#"
   xmlns:svg="http://www.w3.org/2000/svg"
   xmlns="http://www.w3.org/2000/svg"
   xmlns:xlink="http://www.w3.org/1999/xlink"
   xmlns:sodipodi="http://sodipodi.sourceforge.net/DTD/sodipodi-0.dtd"
   xmlns:inkscape="http://www.inkscape.org/namespaces/inkscape"
   id="Layer_1"
   data-name="Layer 1"
   viewBox="0 0 160 160"
   version="1.1"
   sodipodi:docname="bottom_21.svg"
   inkscape:version="0.92.2 (5c3e80d, 2017-08-06)">
  <metadata
     id="metadata54">
    <rdf:RDF>
      <cc:Work
         rdf:about="">
        <dc:format>image/svg+xml</dc:format>
        <dc:type
           rdf:resource="http://purl.org/dc/dcmitype/StillImage" />
      </cc:Work>
    </rdf:RDF>
  </metadata>
  <sodipodi:namedview
     pagecolor="#ffffff"
     bordercolor="#666666"
     borderopacity="1"
     objecttolerance="10"
     gridtolerance="10"
     guidetolerance="10"
     inkscape:pageopacity="0"
     inkscape:pageshadow="2"
     inkscape:window-width="1920"
     inkscape:window-height="976"
     id="namedview52"
     showgrid="false"
     inkscape:zoom="8.34386"
     inkscape:cx="83.659012"
     inkscape:cy="46.035855"
     inkscape:window-x="0"
     inkscape:window-y="27"
     inkscape:window-maximized="1"
     inkscape:current-layer="Layer_1" />
  <defs
     id="defs19">
    <style
       id="style2">.cls-1,.cls-2{fill:url(#linear-gradient);}.cls-1{clip-rule:evenodd;}.cls-2{fill-rule:evenodd;}.cls-3{clip-path:url(#clip-path);}.cls-4{fill:url(#linear-gradient-3);}.cls-5{fill:#f4772b;}.cls-6{opacity:0.12;}.cls-7{fill:url(#White_Black);}.cls-8{opacity:0.5;}.cls-9{opacity:0.4;}.cls-10{opacity:0.25;}.cls-11{fill:url(#White_Black-2);}</style>
    <linearGradient
       id="linear-gradient"
       x1="712.33"
       y1="-197.88"
       x2="712.33"
       y2="-215.79"
       gradientUnits="userSpaceOnUse">
      <stop
         offset="0"
         stop-color="#a66707"
         id="stop4" />
      <stop
         offset="1"
         id="stop6" />
    </linearGradient>
    <clipPath
       id="clip-path">
      <path
         class="cls-1"
         d="M723.7-202.91a15.08,15.08,0,0,1-11.14,5h0l-.22,0-.21,0h0a15.08,15.08,0,0,1-11.14-5c-3.05-3.33-4.9-8.6-4.9-11s4.46,1.42,16,1.42h.46c7.89,0,12.78-2.53,13.65-3s2.39-.65,2.39,1.6S726.74-206.24,723.7-202.91Z"
         id="path9" />
    </clipPath>
    <linearGradient
       id="linear-gradient-3"
       x1="632.98"
       y1="204.14"
       x2="632.98"
       y2="-1627.07"
       xlink:href="#linear-gradient" />
    <linearGradient
       id="White_Black"
       x1="-903.02"
       y1="-306.3"
       x2="-885.5"
       y2="-306.3"
       gradientTransform="translate(983.22 301.46) rotate(-7.78)"
       gradientUnits="userSpaceOnUse">
      <stop
         offset="0"
         stop-color="#fff"
         id="stop13" />
      <stop
         offset="1"
         id="stop15" />
    </linearGradient>
    <linearGradient
       id="White_Black-2"
       x1="1797.17"
       y1="547.19"
       x2="1813.91"
       y2="547.19"
       gradientTransform="translate(-1532.63 -820.61) rotate(13.05)"
       xlink:href="#White_Black" />
  </defs>
  <title
     id="title21">Artboard 42 copy 213</title>
  <ellipse
     class="cls-5"
     cx="36.864697"
     cy="126.72421"
     rx="15.4"
     ry="25.639999"
     transform="rotate(-10.13)"
     id="ellipse29-6"
     style="fill:#000000;fill-opacity:1" />
  <path
     style="fill:#ffffff;fill-opacity:1;opacity:0.2"
     d="M 55.605469 92.880859 A 25.639999 15.4 79.87 0 0 54.068359 93.025391 A 25.639999 15.4 79.87 0 0 43.417969 120.97266 A 25.639999 15.4 79.87 0 0 63.087891 143.50586 A 25.639999 15.4 79.87 0 0 73.738281 115.55664 A 25.639999 15.4 79.87 0 0 55.605469 92.880859 z M 53.050781 99.150391 C 58.100781 99.150391 63.469531 107.00031 65.269531 117.32031 C 67.269531 128.25031 64.559531 137.87031 59.269531 138.82031 A 4.88 4.88 0 0 1 58.419922 138.89062 C 53.359922 138.89062 48.000391 131.09023 46.150391 120.74023 C 44.200391 109.81023 46.909219 100.18023 52.199219 99.240234 A 4.8 4.8 0 0 1 53.050781 99.160156 L 53.050781 99.150391 z "
     id="ellipse29" />
  <path
     class="cls-8"
     d="M59,117.91c.33,1.84-1.54,3.72-1.54,3.72s-2.41-1.11-2.74-3S56.29,115,56.29,115,58.69,116.06,59,117.91Z"
     id="path37"
     style="fill:#010101;fill-opacity:1" />
  <path
     class="cls-9"
     d="M49.22,120.26c.78,4.19,4.69,16.41,10.05,18.55-5.29.94-11.17-7.15-13.12-18.08s.76-20.56,6.05-21.5C47.61,101.53,48.44,116.06,49.22,120.26Z"
     id="path39"
     style="fill:#010101;fill-opacity:1" />
  <path
     class="cls-5"
     d="M120.69,120.83c-2.54,13.44-11.15,23.1-19.22,21.58-7.56-1.43-12-12.18-10.41-24.59C94,116,107,113,115.56,96.29,120.41,100.82,122.65,110.43,120.69,120.83Z"
     id="path41"
     style="fill:#000000;fill-opacity:1" />
  <path
     class="cls-9"
     d="M97,116.65c-.74,4-1.4,16.43,2.7,20.2-4.94-.93-7.46-9.71-5.81-19.84,0-.13,3.38-1.62,3.38-1.62S97,116.29,97,116.65Z"
     id="path49"
     style="fill:#010101;fill-opacity:1" />
  <path
     style="fill:#ffffff;fill-opacity:1;opacity:0.2"
     d="M 115.56055 96.289062 C 107.00055 112.99906 94.000547 116.00031 91.060547 117.82031 C 89.470547 130.23031 93.910706 140.98016 101.4707 142.41016 C 109.5407 143.93016 118.14945 134.27008 120.68945 120.83008 C 122.64945 110.43008 120.41055 100.81906 115.56055 96.289062 z M 111.61914 103.32031 C 113.27914 107.22031 113.71953 113.14 112.51953 119.5 C 110.61953 129.45 105.38953 136.91992 100.51953 136.91992 A 4.27 4.27 0 0 1 99.650391 136.83984 C 94.710391 135.90984 92.189844 127.13 93.839844 117 C 93.899844 116.68 104.99938 112.99914 111.60938 103.36914 L 111.61914 103.32031 z "
     id="path41-5" />
</svg>

<svg xmlns="http://www.w3.org/2000/svg" viewBox="0 0 160 160">
  <ellipse cx="36.9" cy="126.7" rx="15.4" ry="25.6" transform="rotate(-10.1)"/>
  <path d="M59 118c.3 1.7-1.5 3.6-1.5 3.6s-2.4-1-2.8-3 1.6-3.6 1.6-3.6 2.4 1 2.7 3z" fill="#010101" opacity=".5"/>
  <path d="M120.7 120.8c-2.6 13.5-11.2 23.1-19.2 21.6-7.6-1.4-12-12.2-10.4-24.6C94 116 107 113 115.6 96.3c4.8 4.5 7 14.1 5 24.5z"/>
  <g fill="#010101" opacity=".4">
    <path d="M49.2 120.3c.8 4.2 4.7 16.4 10 18.5-5.2 1-11.1-7.1-13-18s.7-20.6 6-21.6c-4.6 2.3-3.8 16.9-3 21z"/>
    <path d="M97 116.7c-.7 4-1.4 16.4 2.7 20.2-5-1-7.5-9.8-5.8-19.9l3.4-1.6-.3 1.3z"/>
  </g>
  <g fill="#fff" opacity=".2">
    <path d="M55.6 92.9a25.6 15.4 79.9 00-1.5.1 25.6 15.4 79.9 00-10.7 28 25.6 15.4 79.9 0019.7 22.5 25.6 15.4 79.9 0010.6-28 25.6 15.4 79.9 00-18-22.6zm-2.5 6.3c5 0 10.4 7.8 12.2 18.1 2 11-.7 20.6-6 21.5a4.9 4.9 0 01-.9 0c-5 0-10.4-7.7-12.2-18-2-11 .7-20.6 6-21.6a4.8 4.8 0 01.9 0z"/>
    <path d="M115.6 96.3C107 113 94 116 91 117.8c-1.6 12.4 2.8 23.2 10.4 24.6 8 1.5 16.6-8.1 19.2-21.6 2-10.4-.3-20-5.1-24.5zm-4 7c1.7 4 2.1 9.8 1 16.2-2 10-7.2 17.4-12 17.4a4.3 4.3 0 01-1 0c-4.9-1-7.4-9.8-5.8-19.9.1-.3 11.2-4 17.8-13.6z"/>
  </g>
</svg>
